svgs/solid/starship.svg

<svg xmlns="http://www.w3.org/2000/svg" viewBox="0 0 640 512"><!-- Font Awesome Pro 6.0.0-alpha2 by @fontawesome - https://fontawesome.com License - https://fontawesome.com/license (Commercial License) --><path d="M448 64C342 64 256 150 256 256C256 362 342 448 448 448C554 448 640 362 640 256C640 150 554 64 448 64ZM448 320C412.625 320 384 291.375 384 256S412.625 192 448 192S512 220.625 512 256S483.375 320 448 320ZM448 224C430.375 224 416 238.375 416 256S430.375 288 448 288S480 273.625 480 256S465.625 224 448 224ZM240 128C240 110.375 225.625 96 208 96H24C10.75 96 0 106.75 0 120V136C0 149.25 10.75 160 24 160H65.336L135.984 217.402L130.75 217.875C111.125 219.75 96 236.25 96 256S111.125 292.25 130.75 294.125L135.984 294.598L65.336 352H24C10.75 352 0 362.75 0 376V392C0 405.25 10.75 416 24 416H208C225.625 416 240 401.625 240 384S225.625 352 208 352H141.434L204.469 300.783L229 303C225.688 287.5 224.031 271.75 224.031 256S225.688 224.5 229 209L204.469 211.217L141.434 160H208C225.625 160 240 145.625 240 128Z"/></svg>

<svg xmlns="http://www.w3.org/2000/svg" viewBox="0 0 640 512"><!--! Font Awesome Pro 6.0.0-alpha3 by @fontawesome - https://fontawesome.com License - https://fontawesome.com/license (Commercial License) --><path d="M448 64c-106 0-192 86-192 192c0 106 85.1 192 192 192c105.1 0 192-85.1 192-192C640 150 553.1 64 448 64zM448 320c-35.38 0-64-28.62-64-64s28.62-64 64-64s64 28.62 64 64S483.4 320 448 320zM448 224c-17.62 0-32 14.38-32 32s14.38 32 32 32s32-14.38 32-32S465.6 224 448 224zM240 128c0-17.62-14.38-32-32-32H24C10.75 96 0 106.8 0 120v16C0 149.3 10.75 160 24 160h41.34l70.65 57.4L130.8 217.9C111.1 219.8 96 236.3 96 256s15.12 36.25 34.75 38.13l5.234 .4727L65.34 352H24C10.75 352 0 362.8 0 376v16C0 405.3 10.75 416 24 416H208c17.62 0 32-14.38 32-32s-14.38-32-32-32H141.4l63.04-51.22L229 303C225.7 287.5 224 271.8 224 256S225.7 224.5 229 209L204.5 211.2L141.4 160H208C225.6 160 240 145.6 240 128z"/></svg>
